X: 9
T:Abe's Retreat
R:Reel
M:4/4
L:1/8
N:Transcribed by Bruce Thomson from Laurie Phillips
K:A
||z4z2cB|:"A"ABcB ABcd|ef=gf
edcB|A2A2B3A|"E"GE3E2cB|
"A"ABcB ABcd|ef=gf eAaA|"E"bAaA
=g2ed|&#91;1"A"cA3A2cB:|&#91;2"A"cA3A4||
|:"A"a3b a=gef|=g2f2e4|a4b3a|"E"=g e3e4"A"a3b
a=gef|=g2f2e2aA|"E"bAaA =g2ed|"A"cA3 A4:|
